static/img/kroki/3066892f9d011a80c5d526550d3ee805.svg

<?xml version="1.0" encoding="us-ascii" standalone="no"?><svg xmlns="http://www.w3.org/2000/svg" xmlns:xlink="http://www.w3.org/1999/xlink" contentStyleType="text/css" height="645px" preserveAspectRatio="none" style="width:406px;height:645px;" version="1.1" viewBox="0 0 406 645" width="406px" zoomAndPan="magnify"><defs/><g><!--class network--><g id="elem_network"><rect codeLine="22" fill="#3D176E" height="39.7891" id="network" rx="2.5" ry="2.5" style="stroke:#000D19;stroke-width:0.5;" width="112" x="229.5" y="438.76"/><ellipse cx="244.5" cy="458.6545" fill="#ADD1B2" rx="11" ry="11" style="stroke:#181818;stroke-width:1.0;"/><path d="M247.4688,464.2952 Q246.8906,464.592 246.25,464.7327 Q245.6094,464.8889 244.9063,464.8889 Q242.4063,464.8889 241.0781,463.2483 Q239.7656,461.592 239.7656,458.467 Q239.7656,455.342 241.0781,453.6858 Q242.4063,452.0295 244.9063,452.0295 Q245.6094,452.0295 246.25,452.1858 Q246.9063,452.342 247.4688,452.6389 L247.4688,455.3577 Q246.8438,454.7795 246.25,454.5139 Q245.6563,454.2327 245.0313,454.2327 Q243.6875,454.2327 243,455.3108 Q242.3125,456.3733 242.3125,458.467 Q242.3125,460.5608 243,461.6389 Q243.6875,462.7014 245.0313,462.7014 Q245.6563,462.7014 246.25,462.4358 Q246.8438,462.1545 247.4688,461.5764 L247.4688,464.2952 Z " fill="#000000"/><text fill="#D9B8FF" font-family="Helvetica" font-size="17" lengthAdjust="spacing" textLength="70" x="263.5" y="464.5398">network</text></g><!--class onprem_network--><g id="elem_onprem_network"><rect codeLine="24" fill="#3D176E" height="39.7891" id="onprem_network" rx="2.5" ry="2.5" style="stroke:#000D19;stroke-width:0.5;" width="186" x="42.5" y="599.55"/><ellipse cx="57.5" cy="619.4445" fill="#ADD1B2" rx="11" ry="11" style="stroke:#181818;stroke-width:1.0;"/><path d="M60.4688,625.0852 Q59.8906,625.382 59.25,625.5227 Q58.6094,625.6789 57.9063,625.6789 Q55.4063,625.6789 54.0781,624.0383 Q52.7656,622.382 52.7656,619.257 Q52.7656,616.132 54.0781,614.4758 Q55.4063,612.8195 57.9063,612.8195 Q58.6094,612.8195 59.25,612.9758 Q59.9063,613.132 60.4688,613.4289 L60.4688,616.1477 Q59.8438,615.5695 59.25,615.3039 Q58.6563,615.0227 58.0313,615.0227 Q56.6875,615.0227 56,616.1008 Q55.3125,617.1633 55.3125,619.257 Q55.3125,621.3508 56,622.4289 Q56.6875,623.4914 58.0313,623.4914 Q58.6563,623.4914 59.25,623.2258 Q59.8438,622.9445 60.4688,622.3664 L60.4688,625.0852 Z " fill="#000000"/><text fill="#D9B8FF" font-family="Helvetica" font-size="17" lengthAdjust="spacing" textLength="144" x="76.5" y="625.3298">onprem_network</text></g><!--class onprem_resource--><g id="elem_onprem_resource"><rect codeLine="26" fill="#3D176E" height="39.7891" id="onprem_resource" rx="2.5" ry="2.5" style="stroke:#000D19;stroke-width:0.5;" width="187" x="7" y="438.76"/><ellipse cx="22" cy="458.6545" fill="#ADD1B2" rx="11" ry="11" style="stroke:#181818;stroke-width:1.0;"/><path d="M24.9688,464.2952 Q24.3906,464.592 23.75,464.7327 Q23.1094,464.8889 22.4063,464.8889 Q19.9063,464.8889 18.5781,463.2483 Q17.2656,461.592 17.2656,458.467 Q17.2656,455.342 18.5781,453.6858 Q19.9063,452.0295 22.4063,452.0295 Q23.1094,452.0295 23.75,452.1858 Q24.4063,452.342 24.9688,452.6389 L24.9688,455.3577 Q24.3438,454.7795 23.75,454.5139 Q23.1563,454.2327 22.5313,454.2327 Q21.1875,454.2327 20.5,455.3108 Q19.8125,456.3733 19.8125,458.467 Q19.8125,460.5608 20.5,461.6389 Q21.1875,462.7014 22.5313,462.7014 Q23.1563,462.7014 23.75,462.4358 Q24.3438,462.1545 24.9688,461.5764 L24.9688,464.2952 Z " fill="#000000"/><text fill="#D9B8FF" font-family="Helvetica" font-size="17" lengthAdjust="spacing" textLength="145" x="41" y="464.5398">onprem_resource</text></g><!--class resource--><g id="elem_resource"><rect codeLine="28" fill="#3D176E" height="310.7578" id="resource" rx="2.5" ry="2.5" style="stroke:#000D19;stroke-width:0.5;" width="227" x="172" y="7"/><ellipse cx="240.75" cy="26.8945" fill="#ADD1B2" rx="11" ry="11" style="stroke:#181818;stroke-width:1.0;"/><path d="M243.7188,32.5352 Q243.1406,32.832 242.5,32.9727 Q241.8594,33.1289 241.1563,33.1289 Q238.6563,33.1289 237.3281,31.4883 Q236.0156,29.832 236.0156,26.707 Q236.0156,23.582 237.3281,21.9258 Q238.6563,20.2695 241.1563,20.2695 Q241.8594,20.2695 242.5,20.4258 Q243.1563,20.582 243.7188,20.8789 L243.7188,23.5977 Q243.0938,23.0195 242.5,22.7539 Q241.9063,22.4727 241.2813,22.4727 Q239.9375,22.4727 239.25,23.5508 Q238.5625,24.6133 238.5625,26.707 Q238.5625,28.8008 239.25,29.8789 Q239.9375,30.9414 241.2813,30.9414 Q241.9063,30.9414 242.5,30.6758 Q243.0938,30.3945 243.7188,29.8164 L243.7188,32.5352 Z " fill="#000000"/><text fill="#D9B8FF" font-family="Helvetica" font-size="17" lengthAdjust="spacing" textLength="71" x="266.25" y="32.7798">resource</text><line style="stroke:#000D19;stroke-width:0.5;" x1="173" x2="398" y1="46.7891" y2="46.7891"/><text fill="#D9B8FF" font-family="sans-serif" font-size="14" font-weight="bold" lengthAdjust="spacing" textLength="29" x="183" y="68.7842">age</text><text fill="#D9B8FF" font-family="sans-serif" font-size="14" lengthAdjust="spacing" textLength="66" x="212" y="68.7842">: duration</text><text fill="#D9B8FF" font-family="sans-serif" font-size="14" font-weight="bold" lengthAdjust="spacing" textLength="43" x="183" y="95.0811">atime</text><text fill="#D9B8FF" font-family="sans-serif" font-size="14" lengthAdjust="spacing" textLength="70" x="226" y="95.0811">: datetime</text><text fill="#D9B8FF" font-family="sans-serif" font-size="14" font-weight="bold" lengthAdjust="spacing" textLength="43" x="183" y="121.3779">ctime</text><text fill="#D9B8FF" font-family="sans-serif" font-size="14" lengthAdjust="spacing" textLength="70" x="226" y="121.3779">: datetime</text><text fill="#D9B8FF" font-family="sans-serif" font-size="14" font-weight="bold" lengthAdjust="spacing" textLength="14" x="183" y="147.6748">id</text><text fill="#D9B8FF" font-family="sans-serif" font-size="14" lengthAdjust="spacing" textLength="48" x="197" y="147.6748">: string</text><text fill="#D9B8FF" font-family="sans-serif" font-size="14" font-weight="bold" lengthAdjust="spacing" textLength="33" x="183" y="173.9717">kind</text><text fill="#D9B8FF" font-family="sans-serif" font-size="14" lengthAdjust="spacing" textLength="48" x="216" y="173.9717">: string</text><text fill="#D9B8FF" font-family="sans-serif" font-size="14" font-weight="bold" lengthAdjust="spacing" textLength="90" x="183" y="200.2686">last_access</text><text fill="#D9B8FF" font-family="sans-serif" font-size="14" lengthAdjust="spacing" textLength="66" x="273" y="200.2686">: duration</text><text fill="#D9B8FF" font-family="sans-serif" font-size="14" font-weight="bold" lengthAdjust="spacing" textLength="90" x="183" y="226.5654">last_update</text><text fill="#D9B8FF" font-family="sans-serif" font-size="14" lengthAdjust="spacing" textLength="66" x="273" y="226.5654">: duration</text><text fill="#D9B8FF" font-family="sans-serif" font-size="14" font-weight="bold" lengthAdjust="spacing" textLength="48" x="183" y="252.8623">mtime</text><text fill="#D9B8FF" font-family="sans-serif" font-size="14" lengthAdjust="spacing" textLength="70" x="231" y="252.8623">: datetime</text><text fill="#D9B8FF" font-family="sans-serif" font-size="14" font-weight="bold" lengthAdjust="spacing" textLength="43" x="183" y="279.1592">name</text><text fill="#D9B8FF" font-family="sans-serif" font-size="14" lengthAdjust="spacing" textLength="48" x="226" y="279.1592">: string</text><text fill="#D9B8FF" font-family="sans-serif" font-size="14" font-weight="bold" lengthAdjust="spacing" textLength="34" x="183" y="305.4561">tags</text><text fill="#D9B8FF" font-family="sans-serif" font-size="14" lengthAdjust="spacing" textLength="171" x="217" y="305.4561">: dictionary[string, string]</text></g><!--reverse link resource to network--><g id="link_resource_network"><path codeLine="40" d="M285.5,338.65 C285.5,379.33 285.5,417.03 285.5,438.68 " fill="none" id="resource-backto-network" style="stroke:#FFAF37;stroke-width:2.0;"/><polygon fill="none" points="278.5,338.85,285.5,318.85,292.5,338.85,278.5,338.85" style="stroke:#FFAF37;stroke-width:2.0;"/></g><!--reverse link network to onprem_network--><g id="link_network_onprem_network"><path codeLine="41" d="M253.36,493.68 C222.94,525.88 178.36,573.08 153.66,599.22 " fill="none" id="network-backto-onprem_network" style="stroke:#FFAF37;stroke-width:2.0;"/><polygon fill="none" points="247.58,489.54,266.41,479.81,257.76,499.16,247.58,489.54" style="stroke:#FFAF37;stroke-width:2.0;"/></g><!--reverse link onprem_resource to onprem_network--><g id="link_onprem_resource_onprem_network"><path codeLine="42" d="M109.19,499.1 C116.22,530.99 125.82,574.51 131.26,599.22 " fill="none" id="onprem_resource-backto-onprem_network" style="stroke:#FFAF37;stroke-width:2.0;"/><polygon fill="none" points="102.19,500.85,104.72,479.81,115.86,497.83,102.19,500.85" style="stroke:#FFAF37;stroke-width:2.0;"/></g><!--SRC=[XP9FQy904CNlVee5Rw62Lbgrz6A5qbwarDvAAUFk92v9TiFif6B_VFScHcLDejwIztwPDs_8IYiKc6Qy4IccIoJNSR4s6H2aOafarpERM1BTC8HmEAgRZzRmHM0EAOedJBwGjOGwyRRICZRedBZsh0UGSKGsDweQpmJ65HOQzgXP0ivDcKalSqPl6JLPZiEmJjQ7TeTgCBh51cP98UsGVh-l1fCwSZ7gREy3iT3VA0R-qUQMiR5c8s9BdTso9Bmb6qNt_iaTNq0fRI9nusclrKvaa8xqnGgKNPTq28dpOnmZeULDXhD6AvoCLJXgXPzFmRAyd338Qqkn-EdyxHHhCiBqywH1w6nE4Zt7au808Wo2Ew5o0jRMb0hhjDA0iNmkDDcYQLKAhlW5JLIy5cMEXIABFq7AuWUl9MoTF2jdrPoq9ST09Hq6CqJLH2tBpu0sxvLtjMC-Ygg7alU_lLvlVxZE_awLUdoyJlraRT0_]--></g></svg>

<svg xmlns="http://www.w3.org/2000/svg" width="406" height="645" preserveAspectRatio="none" style="width:406px;height:645px"><rect width="112" height="39.789" x="229.5" y="438.76" fill="#3D176E" rx="2.5" ry="2.5" style="stroke:#000d19;stroke-width:.5"/><circle cx="244.5" cy="458.654" r="11" fill="#ADD1B2" style="stroke:#181818;stroke-width:1"/><path d="M247.469 464.295q-.578.297-1.219.438-.64.156-1.344.156-2.5 0-3.828-1.64-1.312-1.657-1.312-4.782t1.312-4.781q1.328-1.656 3.828-1.656.703 0 1.344.156.656.156 1.219.453v2.719q-.625-.579-1.219-.844-.594-.281-1.219-.281-1.344 0-2.031 1.078-.688 1.062-.688 3.156 0 2.094.688 3.172.688 1.062 2.031 1.062.625 0 1.219-.265.594-.281 1.219-.86v2.72Z"/><text x="263.5" y="464.54" fill="#D9B8FF" font-family="Helvetica" font-size="17" textLength="70">network</text><rect width="186" height="39.789" x="42.5" y="599.55" fill="#3D176E" rx="2.5" ry="2.5" style="stroke:#000d19;stroke-width:.5"/><circle cx="57.5" cy="619.444" r="11" fill="#ADD1B2" style="stroke:#181818;stroke-width:1"/><path d="M60.469 625.085q-.578.297-1.219.438-.64.156-1.344.156-2.5 0-3.828-1.64-1.312-1.657-1.312-4.782t1.312-4.781q1.328-1.657 3.828-1.657.703 0 1.344.157.656.156 1.219.453v2.719q-.625-.579-1.219-.844-.594-.281-1.219-.281-1.343 0-2.031 1.078-.688 1.062-.688 3.156 0 2.094.688 3.172.688 1.062 2.031 1.062.625 0 1.219-.265.594-.282 1.219-.86v2.72Z"/><text x="76.5" y="625.33" fill="#D9B8FF" font-family="Helvetica" font-size="17" textLength="144">onprem_network</text><rect width="187" height="39.789" x="7" y="438.76" fill="#3D176E" rx="2.5" ry="2.5" style="stroke:#000d19;stroke-width:.5"/><circle cx="22" cy="458.654" r="11" fill="#ADD1B2" style="stroke:#181818;stroke-width:1"/><path d="M24.969 464.295q-.578.297-1.219.438-.64.156-1.344.156-2.5 0-3.828-1.64-1.312-1.657-1.312-4.782t1.312-4.781q1.328-1.656 3.828-1.656.703 0 1.344.156.656.156 1.219.453v2.719q-.625-.579-1.219-.844-.594-.281-1.219-.281-1.343 0-2.031 1.078-.688 1.062-.688 3.156 0 2.094.688 3.172.688 1.062 2.031 1.062.625 0 1.219-.265.594-.281 1.219-.86v2.72Z"/><text x="41" y="464.54" fill="#D9B8FF" font-family="Helvetica" font-size="17" textLength="145">onprem_resource</text><rect width="227" height="310.758" x="172" y="7" fill="#3D176E" rx="2.5" ry="2.5" style="stroke:#000d19;stroke-width:.5"/><circle cx="240.75" cy="26.895" r="11" fill="#ADD1B2" style="stroke:#181818;stroke-width:1"/><path d="M243.719 32.535q-.578.297-1.219.438-.64.156-1.344.156-2.5 0-3.828-1.64-1.312-1.657-1.312-4.782t1.312-4.781q1.328-1.656 3.828-1.656.703 0 1.344.156.656.156 1.219.453v2.719q-.625-.578-1.219-.844-.594-.281-1.219-.281-1.344 0-2.031 1.078-.688 1.062-.688 3.156 0 2.094.688 3.172.688 1.062 2.031 1.062.625 0 1.219-.265.594-.281 1.219-.86v2.72Z"/><text x="266.25" y="32.78" fill="#D9B8FF" font-family="Helvetica" font-size="17" textLength="71">resource</text><path d="M173 46.789h225" style="stroke:#000d19;stroke-width:.5"/><text x="183" y="68.784" fill="#D9B8FF" font-family="sans-serif" font-size="14" font-weight="bold" textLength="29">age</text><text x="212" y="68.784" fill="#D9B8FF" font-family="sans-serif" font-size="14" textLength="66">: duration</text><text x="183" y="95.081" fill="#D9B8FF" font-family="sans-serif" font-size="14" font-weight="bold" textLength="43">atime</text><text x="226" y="95.081" fill="#D9B8FF" font-family="sans-serif" font-size="14" textLength="70">: datetime</text><text x="183" y="121.378" fill="#D9B8FF" font-family="sans-serif" font-size="14" font-weight="bold" textLength="43">ctime</text><text x="226" y="121.378" fill="#D9B8FF" font-family="sans-serif" font-size="14" textLength="70">: datetime</text><text x="183" y="147.675" fill="#D9B8FF" font-family="sans-serif" font-size="14" font-weight="bold" textLength="14">id</text><text x="197" y="147.675" fill="#D9B8FF" font-family="sans-serif" font-size="14" textLength="48">: string</text><text x="183" y="173.972" fill="#D9B8FF" font-family="sans-serif" font-size="14" font-weight="bold" textLength="33">kind</text><text x="216" y="173.972" fill="#D9B8FF" font-family="sans-serif" font-size="14" textLength="48">: string</text><text x="183" y="200.269" fill="#D9B8FF" font-family="sans-serif" font-size="14" font-weight="bold" textLength="90">last_access</text><text x="273" y="200.269" fill="#D9B8FF" font-family="sans-serif" font-size="14" textLength="66">: duration</text><text x="183" y="226.565" fill="#D9B8FF" font-family="sans-serif" font-size="14" font-weight="bold" textLength="90">last_update</text><text x="273" y="226.565" fill="#D9B8FF" font-family="sans-serif" font-size="14" textLength="66">: duration</text><text x="183" y="252.862" fill="#D9B8FF" font-family="sans-serif" font-size="14" font-weight="bold" textLength="48">mtime</text><text x="231" y="252.862" fill="#D9B8FF" font-family="sans-serif" font-size="14" textLength="70">: datetime</text><text x="183" y="279.159" fill="#D9B8FF" font-family="sans-serif" font-size="14" font-weight="bold" textLength="43">name</text><text x="226" y="279.159" fill="#D9B8FF" font-family="sans-serif" font-size="14" textLength="48">: string</text><text x="183" y="305.456" fill="#D9B8FF" font-family="sans-serif" font-size="14" font-weight="bold" textLength="34">tags</text><text x="217" y="305.456" fill="#D9B8FF" font-family="sans-serif" font-size="14" textLength="171">: dictionary[string, string]</text><path fill="none" d="M285.5 338.65v100.03m-7-99.83 7-20 7 20h-14z" style="stroke:#ffaf37;stroke-width:2"/><g fill="none"><path d="M253.36 493.68c-30.42 32.2-75 79.4-99.7 105.54" style="stroke:#ffaf37;stroke-width:2"/><path d="m247.58 489.54 18.83-9.73-8.65 19.35-10.18-9.62z" style="stroke:#ffaf37;stroke-width:2"/></g><g fill="none"><path d="M109.19 499.1c7.03 31.89 16.63 75.41 22.07 100.12" style="stroke:#ffaf37;stroke-width:2"/><path d="m102.19 500.85 2.53-21.04 11.14 18.02-13.67 3.02z" style="stroke:#ffaf37;stroke-width:2"/></g></svg>
